X: 164
M: C
L: 1/8
K: G
E2 (G>A) {A}B3 e | d3 e B2 A2{GA} | G6 ][ d2 |
d3 (e/f/) {f}g3 (f/e/) | d3 e B3 e |
d3 e (dB) (AG) | (B3 c/B/ A2) zG | G2 B d
e3 d | g3 {b}a g3 Hy (e/d/) | (d<B) (g<e)
(d<B) A2{GA} | G6 |]

